X:19
T:LESMRCH2- Blue Bonnets over the Border
S:Gow's Strathspey Reels, bk. 5, (1809)
Q:120
L:1/8
M:C
K:A
c|A3/2B/cd efec|B3/2c/de f/f/f~f2|ABcd ecaf|ecdB A/A/A A::\
e|~cABc BGG~FE|~cABc F/FF F3/2d/|~cABc BGFE|ecdB A/A/A A:\
f/g/|aecA aecA|~B3/2A/Bc F/F/F F3/2g/|aecA aecA|\
d3/2B/ec A/A/A Ag|aecA aecA|BABc F/F/F F3/2g/|\
aecA (ef/g/ a3/2)f/|ecdB A/A/A A|]

